!!!COM: Music21
!!!OTL: Pasodoble de Meira
!!!OMV: pezas_pasodobles_pasodoble-de-meira_pasodoble-de-meira-partitura.musicxml
**kern
*I"Bagpipes
*I'Bag
*clefG^2
*k[]
*M2/4
=1
!LO:TX:a:t=Allegretto
16eeLL
16ff
16ee
16ddJJ
16eeLL
16ff
16ee
16ddJJ
=
4ee
8ccL
8eeJ
=
8ggL
8ffJ
8eeL
8ddJ
=
4ee
4cc
=
16eeLL
16ff
16ee
16ddJJ
16eeLL
16ff
16ee
16ddJJ
=
4ee
8ccL
8eeJ
=
8ggL
8ffJ
8eeL
8ddJ
=
2cc
!!linebreak:original
=||
*M2/4
!LO:TX:a:t=Allegretto
16eeLL
16ff
16ee
16ddJJ
16eeLL
16ff
16ee
16ddJJ
=
4ee
8ccL
8eeJ
=
8ggL
8ffJ
8eeL
8ddJ
=
4ee
4cc
=
16eeLL
16ff
16ee
16ddJJ
16eeLL
16ff
16ee
16ddJJ
=
4ee
8ccL
8eeJ
=
8ggL
8ffJ
8eeL
8ddJ
=
2cc
=||
4ee
4ff
=
4.gg
8aa
!!linebreak:original
=
8ggL
8ffJ
8eeL
8ddJ
=
4ee
4cc
=
4ee
4ff
=
4.gg
8aa
=
8ggL
8ffJ
8eeL
8ddJ
=||
2cc
=||
4ee
4ff
=
4.gg
8aa
=
8ggL
8ffJ
8eeL
8ddJ
=
4ee
4cc
=
4ee
4ff
=
4.gg
8aa
=
8ggL
8ffJ
8eeL
8ddJ
!!linebreak:original
=||
2cc
=||
*-
